lib/flags/m/LSO.svg

<svg xmlns="http://www.w3.org/2000/svg" fill="none" viewBox="0 0 20 15"><mask id="LSO_svg__a" width="20" height="15" x="0" y="0" mask-type="alpha" maskUnits="userSpaceOnUse"><path fill="#fff" d="M0 0H20V15H0z"/></mask><g fill-rule="evenodd" clip-rule="evenodd" mask="url(#LSO_svg__a)"><path fill="#55BA07" d="M0 10H20V15H0V10Z"/><path fill="#F7FCFF" d="M0 5H20V10H0V5Z"/><path fill="#3D58DB" d="M0 0H20V5H0V0Z"/><path fill="#1D1D1D" d="M9.53125 5.15022C9.20458 5.23793 9.03207 5.46369 9.03207 5.86314C9.03207 6.31964 9.25622 6.74811 9.53125 6.96909V5.15022ZM10.3125 6.95687C10.5799 6.73284 10.7948 6.31234 10.7948 5.86431C10.7948 5.47635 10.625 5.2516 10.3125 5.15834V6.95687ZM10.2862 4.83271C10.7977 4.94633 11.1678 5.29469 11.1678 5.86066C11.1678 6.2723 10.972 6.77273 10.6684 7.11613L12.1895 8.60803L12.5647 8.48448L13.125 9.33427C13.125 9.33427 11.7088 10 9.95839 10C8.20798 10 6.875 9.33427 6.875 9.33427L7.35197 8.60803L7.73718 8.7343L9.1484 7.14201C8.83153 6.79822 8.62563 6.28277 8.62563 5.86066C8.62563 5.27467 9.02245 4.92196 9.56212 4.82154C9.62152 4.68156 9.76023 4.58337 9.92187 4.58337C10.0878 4.58337 10.2295 4.68681 10.2862 4.83271ZM7.50104 8.93526L7.34255 9.15555H7.65103L7.50104 8.93526ZM7.68172 9.2425L7.40932 9.29732L7.68172 9.39221V9.2425ZM7.82066 8.92525L7.95992 9.25039L8.30587 9.15603L8.23728 9.0253L7.82066 8.92525ZM8.573 9.57372L8.06497 9.47357L8.00682 9.37593L8.38997 9.29252L8.573 9.57372ZM8.60264 9.10836L8.76056 9.3925L9.10775 9.28676L9.01117 9.15941L8.60264 9.10836ZM8.88734 9.63041L8.82518 9.5129L9.20942 9.41033L9.43053 9.68051L8.88734 9.63041ZM9.6048 9.43534L10.1 9.3044L10.0391 9.19197H9.39639L9.6048 9.43534ZM9.78235 9.68565L9.70367 9.56402L10.1792 9.40831L10.4316 9.68565H9.78235ZM10.3841 9.20057L10.5362 9.38691L10.948 9.24415L10.8964 9.14688L10.3841 9.20057ZM11.2779 9.58793L10.7242 9.6495L10.6428 9.51199L11.0615 9.37448L11.2779 9.58793ZM11.2428 9.11064L11.3979 9.30131L11.7696 9.11064L11.6664 9.05338L11.2428 9.11064ZM11.5643 9.53668L11.4971 9.43356L11.8508 9.22129L12.0306 9.43356L11.5643 9.53668ZM11.9155 8.9436L12.1401 9.15791L12.3586 8.9436L12.2895 8.85639L11.9155 8.9436ZM12.2716 9.23151L12.4547 9.05034L12.5862 9.23151L12.2716 9.33272V9.23151Z"/></g></svg>

<svg xmlns="http://www.w3.org/2000/svg" fill="none" viewBox="0 0 20 15"><mask id="LSO_svg__a" width="20" height="15" x="0" y="0" maskUnits="userSpaceOnUse"><path fill="#fff" d="M0 0h20v15H0z"/></mask><g fill-rule="evenodd" clip-rule="evenodd" mask="url(#LSO_svg__a)"><path fill="#55BA07" d="M0 10h20v5H0v-5z"/><path fill="#F7FCFF" d="M0 5h20v5H0V5z"/><path fill="#3D58DB" d="M0 0h20v5H0V0z"/><path fill="#1D1D1D" d="M9.531 5.15c-.326.088-.499.314-.499.713 0 .457.224.885.5 1.106V5.15zm.781 1.807c.268-.224.483-.645.483-1.093 0-.388-.17-.612-.482-.706v1.799zm-.026-2.124c.512.113.882.462.882 1.028 0 .411-.196.912-.5 1.255l1.522 1.492.375-.124.56.85S11.709 10 9.958 10c-1.75 0-3.083-.666-3.083-.666l.477-.726.385.126 1.411-1.592c-.316-.344-.522-.86-.522-1.281 0-.586.396-.94.936-1.04a.39.39 0 01.724.012zM7.501 8.935l-.158.22h.308l-.15-.22zm.18.307l-.272.055.273.095v-.15zm.14-.317l.139.325.346-.094-.069-.13-.416-.1zm.752.649l-.508-.1-.058-.098.383-.084.183.282zm.03-.466l.158.284.347-.105-.097-.128-.408-.05zm.284.522l-.062-.117.384-.103.222.27-.544-.05zm.718-.195l.495-.13-.06-.113h-.644l.209.243zm.177.25l-.078-.121.475-.156.253.278h-.65zm.602-.484l.152.186.412-.143-.052-.097-.512.054zm.894.387l-.554.061-.081-.137.418-.138.217.214zm-.035-.477l.155.19.372-.19-.104-.058-.423.058zm.321.426l-.067-.103.354-.213.18.213-.467.103zm.351-.593l.225.214.219-.214-.07-.088-.373.088zm.357.287l.183-.18.131.18-.314.102V9.23z"/></g></svg>
